static/recite-words/icon.svg

<?xml version="1.0" standalone="no"?><!DOCTYPE svg PUBLIC "-//W3C//DTD SVG 1.1//EN" "http://www.w3.org/Graphics/SVG/1.1/DTD/svg11.dtd"><svg t="1564738812143" class="icon" viewBox="0 0 1024 1024" version="1.1" xmlns="http://www.w3.org/2000/svg" p-id="3225" xmlns:xlink="http://www.w3.org/1999/xlink" width="200" height="200"><defs><style type="text/css"></style></defs><path d="M533.333333 170.666667l130.133334 74.666666v149.333334l-130.133334 74.666666-130.133333-74.666666v-149.333334z" fill="#F9BA48" p-id="3226"></path><path d="M544 64c-181.333333 0-330.666667 162.133333-330.666667 362.666667v6.4l-53.333333 115.2c-2.133333 4.266667-2.133333 10.666667 0 17.066666 2.133333 4.266667 6.4 10.666667 10.666667 12.8l85.333333 40.533334v151.466666c0 12.8 8.533333 21.333333 21.333333 21.333334h106.666667v149.333333c0 12.8 8.533333 21.333333 21.333333 21.333333h298.666667c12.8 0 21.333333-8.533333 21.333333-21.333333v-209.066667c93.866667-68.266667 149.333333-181.333333 149.333334-302.933333 0-202.666667-149.333333-364.8-330.666667-364.8z m155.733333 631.466667l-8.533333 6.4c-6.4 4.266667-8.533333 10.666667-8.533333 17.066666v198.4h-256v-149.333333c0-12.8-8.533333-21.333333-21.333334-21.333333h-106.666666v-142.933334c0-8.533333-4.266667-14.933333-12.8-19.2l-78.933334-36.266666 46.933334-100.266667c2.133333-2.133333 2.133333-6.4 2.133333-8.533333v-10.666667c0-177.066667 130.133333-320 288-320s288 142.933333 288 320c0 106.666667-49.066667 206.933333-132.266667 266.666667z" fill="#3A3E46" p-id="3227"></path><path d="M533.333333 672c-40.533333 0-74.666667 34.133333-74.666666 74.666667s34.133333 74.666667 74.666666 74.666666 74.666667-34.133333 74.666667-74.666666-34.133333-74.666667-74.666667-74.666667z m0 128c-29.866667 0-53.333333-23.466667-53.333333-53.333333s23.466667-53.333333 53.333333-53.333334 53.333333 23.466667 53.333334 53.333334-23.466667 53.333333-53.333334 53.333333zM512 512h42.666667v42.666667h-42.666667zM512 597.333333h42.666667v42.666667h-42.666667z" fill="#3A3E46" p-id="3228"></path><path d="M533.333333 746.666667m-21.333333 0a21.333333 21.333333 0 1 0 42.666667 0 21.333333 21.333333 0 1 0-42.666667 0Z" fill="#3A3E46" p-id="3229"></path><path d="M533.333333 300.8l-113.066666-64-17.066667 8.533333v12.8l117.333333 66.133334v136.533333l12.8 8.533333 12.8-8.533333v-136.533333l117.333334-66.133334v-12.8l-17.066667-8.533333z" fill="#3A3E46" p-id="3230"></path></svg>

<svg class="icon" viewBox="0 0 1024 1024" xmlns="http://www.w3.org/2000/svg" width="200" height="200"><path d="M533.333 170.667l130.134 74.666v149.334l-130.134 74.666L403.2 394.667V245.333z" fill="#F9BA48"/><path d="M544 64c-181.333 0-330.667 162.133-330.667 362.667v6.4L160 548.267c-2.133 4.266-2.133 10.666 0 17.066 2.133 4.267 6.4 10.667 10.667 12.8L256 618.667v151.466c0 12.8 8.533 21.334 21.333 21.334H384V940.8c0 12.8 8.533 21.333 21.333 21.333H704c12.8 0 21.333-8.533 21.333-21.333V731.733C819.2 663.467 874.667 550.4 874.667 428.8 874.667 226.133 725.333 64 544 64zm155.733 631.467l-8.533 6.4c-6.4 4.266-8.533 10.666-8.533 17.066v198.4h-256V768c0-12.8-8.534-21.333-21.334-21.333H298.667V603.733c0-8.533-4.267-14.933-12.8-19.2l-78.934-36.266L253.867 448c2.133-2.133 2.133-6.4 2.133-8.533V428.8c0-177.067 130.133-320 288-320s288 142.933 288 320c0 106.667-49.067 206.933-132.267 266.667z" fill="#3A3E46"/><path d="M533.333 672c-40.533 0-74.666 34.133-74.666 74.667s34.133 74.666 74.666 74.666S608 787.2 608 746.667 573.867 672 533.333 672zm0 128C503.467 800 480 776.533 480 746.667s23.467-53.334 53.333-53.334 53.334 23.467 53.334 53.334S563.2 800 533.333 800zM512 512h42.667v42.667H512zm0 85.333h42.667V640H512z" fill="#3A3E46"/><path d="M512 746.667a21.333 21.333 0 1 0 42.667 0 21.333 21.333 0 1 0-42.667 0zM533.333 300.8l-113.066-64-17.067 8.533v12.8l117.333 66.134V460.8l12.8 8.533 12.8-8.533V324.267l117.334-66.134v-12.8L646.4 236.8z" fill="#3A3E46"/></svg>
